svg/border_radius.svg

<svg xmlns="http://www.w3.org/2000/svg" viewBox="0 0 24 24"><path d="M3 16c0 2.8 2.2 5 5 5h2v-2H8c-1.7 0-3-1.3-3-3v-2H3zm18-8c0-2.8-2.2-5-5-5h-2v2h2c1.7 0 3 1.3 3 3v2h2zm-5 13c2.8 0 5-2.2 5-5v-2h-2v2c0 1.7-1.3 3-3 3h-2v2zM8 3C5.2 3 3 5.2 3 8v2h2V8c0-1.7 1.3-3 3-3h2V3z"/></svg>

<svg xmlns="http://www.w3.org/2000/svg" id="mdi-border-radius" viewBox="0 0 24 24"><path d="M3 16C3 18.8 5.2 21 8 21H10V19H8C6.3 19 5 17.7 5 16V14H3V16M21 8C21 5.2 18.8 3 16 3H14V5H16C17.7 5 19 6.3 19 8V10H21V8M16 21C18.8 21 21 18.8 21 16V14H19V16C19 17.7 17.7 19 16 19H14V21H16M8 3C5.2 3 3 5.2 3 8V10H5V8C5 6.3 6.3 5 8 5H10V3H8Z" /></svg>
